src/icons/debug.svg

<svg width="24" height="24" viewBox="0 0 24 24" fill="none" xmlns="http://www.w3.org/2000/svg">
<path d="M3.46279 12.86L3.45815 12.79C3.45964 12.8134 3.46119 12.8367 3.46279 12.86Z" fill="white"/>
<path d="M10.7275 13.5509L7.69304 10.501L8.70723 9.4868L11.9159 12.7117L15.0789 9.54875L16.0931 10.5629L13.0589 13.5972L16.0934 16.647L15.0792 17.6612L11.8705 14.4362L8.70748 17.5993L7.69329 16.5851L10.7275 13.5509Z" fill="white"/>
<path fill-rule="evenodd" clip-rule="evenodd" d="M16.9329 5.00286V6H18.2784L21.1205 3.15788L22.1347 4.17207L19.4435 6.86321L19.476 6.94805C20.0424 8.42597 20.3614 10.094 20.3614 11.86C20.3614 12.1955 20.3499 12.5274 20.3274 12.8552L20.3222 12.93H23.8629V14.3643H20.142L20.1315 14.4217C19.8292 16.075 19.2409 17.5825 18.4398 18.851L18.3802 18.9454L21.8027 22.3852L20.7859 23.3968L17.512 20.1063L17.4131 20.2169C15.934 21.8712 14.0177 22.8629 11.93 22.8629C9.81001 22.8629 7.86653 21.8402 6.37842 20.1395L6.27988 20.0268L3.07125 23.2355L2.05706 22.2213L5.42258 18.8558L5.36431 18.7615C4.59172 17.5118 4.02373 16.0363 3.72847 14.4217L3.71797 14.3643H0V12.93H3.53777L3.53262 12.8552C3.51009 12.5274 3.49858 12.1955 3.49858 11.86C3.49858 10.117 3.80935 8.46951 4.36194 7.00599L4.39377 6.92168L1.63228 4.14621L2.64904 3.13457L5.50003 6H6.92715V5.00286C6.92715 2.23986 9.16701 0 11.93 0C14.693 0 16.9329 2.23986 16.9329 5.00286ZM8.36144 5.00286V6H15.4986V5.00286C15.4986 3.03199 13.9009 1.43429 11.93 1.43429C9.95914 1.43429 8.36144 3.03199 8.36144 5.00286ZM18.1609 7.52498L18.1267 7.43429H5.73328L5.69915 7.52498C5.21331 8.81605 4.93286 10.2859 4.93286 11.86C4.93286 14.6199 5.7951 17.061 7.11691 18.7793C8.43755 20.4962 10.1529 21.4286 11.93 21.4286C13.7072 21.4286 15.4225 20.4962 16.7431 18.7793C18.0649 17.061 18.9271 14.6199 18.9271 11.86C18.9271 10.2859 18.6467 8.81605 18.1609 7.52498Z" fill="white"/>
</svg>

<svg width="24" height="24" xmlns="http://www.w3.org/2000/svg"><path d="M3.463 12.86l-.005-.07.005.07zm7.264.69l-3.034-3.049 1.014-1.014 3.209 3.225 3.163-3.163 1.014 1.014-3.034 3.034 3.034 3.05-1.014 1.014-3.209-3.225L8.707 17.6l-1.014-1.014 3.034-3.034z"/><path fill-rule="evenodd" clip-rule="evenodd" d="M16.933 5.003V6h1.345l2.843-2.842 1.014 1.014-2.692 2.691.033.085a13.75 13.75 0 0 1 .885 4.912c0 .335-.011.667-.034.995l-.005.075h3.54v1.434h-3.72l-.01.058c-.303 1.653-.891 3.16-1.692 4.429l-.06.094 3.423 3.44-1.017 1.012-3.274-3.29-.099.11c-1.479 1.654-3.395 2.646-5.483 2.646-2.12 0-4.063-1.023-5.552-2.723l-.098-.113-3.209 3.208-1.014-1.014 3.366-3.365-.059-.095c-.772-1.25-1.34-2.725-1.636-4.34l-.01-.057H0V12.93h3.538l-.005-.075a14.23 14.23 0 0 1-.034-.995c0-1.743.31-3.39.863-4.854l.032-.084-2.762-2.776L2.65 3.135 5.5 6h1.427v-.997a5.003 5.003 0 0 1 10.006 0zm-8.572 0V6H15.5v-.997a3.569 3.569 0 0 0-7.138 0zm9.8 2.522l-.034-.09H5.733l-.034.09a12.328 12.328 0 0 0-.766 4.335c0 2.76.862 5.201 2.184 6.92 1.32 1.716 3.036 2.649 4.813 2.649 1.777 0 3.492-.933 4.813-2.65 1.322-1.718 2.184-4.16 2.184-6.919 0-1.574-.28-3.044-.766-4.335z"/></svg>
